src/images/svg/security/medium.svg

<svg width="48" height="48" viewBox="0 0 48 48" fill="none" xmlns="http://www.w3.org/2000/svg">
<path fill-rule="evenodd" clip-rule="evenodd" d="M39 0C43.9706 0 48 4.0294 48 9V39C48 43.9706 43.9706 48 39 48H9C4.0294 48 0 43.9706 0 39V9C0 4.0294 4.0294 0 9 0H39Z" fill="#3C77AE"/>
<path fill-rule="evenodd" clip-rule="evenodd" d="M14 17C12.8954 17 12 17.8954 12 19C12 20.1046 12.8954 21 14 21H34C35.1046 21 36 20.1046 36 19C36 17.8954 35.1046 17 34 17H14ZM14 27C12.8954 27 12 27.8954 12 29C12 30.1046 12.8954 31 14 31H34C35.1046 31 36 30.1046 36 29C36 27.8954 35.1046 27 34 27H14Z" fill="white"/>
</svg>

<svg width="48" height="48" fill="none" xmlns="http://www.w3.org/2000/svg"><path fill-rule="evenodd" clip-rule="evenodd" d="M39 0a9 9 0 0 1 9 9v30a9 9 0 0 1-9 9H9a9 9 0 0 1-9-9V9a9 9 0 0 1 9-9h30Z" fill="#3C77AE"/><path fill-rule="evenodd" clip-rule="evenodd" d="M14 17a2 2 0 1 0 0 4h20a2 2 0 1 0 0-4H14Zm0 10a2 2 0 1 0 0 4h20a2 2 0 1 0 0-4H14Z" fill="#fff"/></svg>
